packages/ui-icons/svg/Line/table-top-header.svg

<svg viewBox="0 0 1920 1920" xmlns="http://www.w3.org/2000/svg">
    <path d="M1740 0c99.24 0 180 80.76 180 180v1560c0 99.24-80.76 180-180 180H180c-99.24 0-180-80.76-180-180V180C0 80.76 80.76 0 180 0h1560Zm-420 1200h480V720h-480v480Zm480 540v-420h-480v480h420c33 0 60-27 60-60ZM720 1200h480V720H720v480Zm0 600h480v-480H720v480Zm-600-600h480V720H120v480Zm480 600v-480H120v420c0 33 27 60 60 60h420Z" fill-rule="evenodd"/>
</svg>

<svg viewBox="0 0 1920 1920" version="1.1" xmlns="http://www.w3.org/2000/svg">
    <path d="M1740,0 C1839.24,0 1920,80.76 1920,180 L1920,1740 C1920,1839.24 1839.24,1920 1740,1920 L180,1920 C80.76,1920 0,1839.24 0,1740 L0,180 C0,80.76 80.76,0 180,0 L1740,0 Z M1320,1200 L1800,1200 L1800,720 L1320,720 L1320,1200 Z M1800,1740 L1800,1320 L1320,1320 L1320,1800 L1740,1800 C1773,1800 1800,1773 1800,1740 Z M720,1200 L1200,1200 L1200,720 L720,720 L720,1200 Z M720,1800 L1200,1800 L1200,1320 L720,1320 L720,1800 Z M120,1200 L600,1200 L600,720 L120,720 L120,1200 Z M600,1800 L600,1320 L120,1320 L120,1740 C120,1773 147,1800 180,1800 L600,1800 Z" stroke="none" stroke-width="1" fill-rule="evenodd"/>
</svg>
